svgs/buckwheat.svg

<svg xmlns="http://www.w3.org/2000/svg" viewBox="0 0 192 192"><path d="M117.1 175.756c-13.945-1.376-31.077-7.509-49.061-17.563-23.105-12.916-38.246-26.578-44.811-40.434-5.237-11.053-5.079-22.915.453-34.067 10.181-20.521 39.926-40.842 82.303-56.226 18.559-6.738 37.08-11.331 46.156-11.447 4.882-.062 4.91-.056 6.098 1.43 2.418 3.026 6.205 15.641 9.121 30.381 5.217 26.374 6.653 55.088 3.748 74.958-3.707 25.361-13.352 41.587-29.146 49.037-7.12 3.358-16.169 4.789-24.861 3.931Zm14.881-11.417c6.83-1.544 14.275-6.83 18.589-13.2 5.489-8.104 9.413-20.981 10.829-35.531.669-6.877.677-26.56.014-34.406-.93-10.995-3.124-26.353-5.029-35.188-.732-3.398-.871-3.071-3.214 7.544-9.473 42.92-23.558 75.169-40.037 91.671-5.005 5.012-8.694 7.68-14.887 10.766-5.946 2.962-6.063 2.644 1.943 5.292 12.577 4.161 22.618 5.124 31.792 3.052Zm-44.497-15.416c13.404-3.46 24.625-14.988 35.132-36.092 5.86-11.771 11.037-26.05 15.933-43.951 3.33-12.175 9.837-41.483 9.323-41.997-.361-.36-12.116 2.238-19.216 4.247-30.58 8.655-60.636 22.899-78.057 36.992-13.805 11.168-20.664 22.106-20.664 32.951 0 5.081.956 8.828 3.501 13.719 5.194 9.985 15.786 19.776 32.426 29.975 3.659 2.242 7.214 4.248 7.901 4.457 2.244.682 10.624.498 13.721-.301Z"/></svg>

<svg
    xmlns="http://www.w3.org/2000/svg"
    viewBox="0 0 192 192"
    id="vector">
    <path
        id="path"
        d="M 117.1 175.756 C 103.155 174.38 86.023 168.247 68.039 158.193 C 44.934 145.277 29.793 131.615 23.228 117.759 C 17.991 106.706 18.149 94.844 23.681 83.692 C 33.862 63.171 63.607 42.85 105.984 27.466 C 124.543 20.728 143.064 16.135 152.14 16.019 C 157.022 15.957 157.05 15.963 158.238 17.449 C 160.656 20.475 164.443 33.09 167.359 47.83 C 172.576 74.204 174.012 102.918 171.107 122.788 C 167.4 148.149 157.755 164.375 141.961 171.825 C 134.841 175.183 125.792 176.614 117.1 175.756 Z M 131.981 164.339 C 138.811 162.795 146.256 157.509 150.57 151.139 C 156.059 143.035 159.983 130.158 161.399 115.608 C 162.068 108.731 162.076 89.048 161.413 81.202 C 160.483 70.207 158.289 54.849 156.384 46.014 C 155.652 42.616 155.513 42.943 153.17 53.558 C 143.697 96.478 129.612 128.727 113.133 145.229 C 108.128 150.241 104.439 152.909 98.246 155.995 C 92.3 158.957 92.183 158.639 100.189 161.287 C 112.766 165.448 122.807 166.411 131.981 164.339 Z M 87.484 148.923 C 100.888 145.463 112.109 133.935 122.616 112.831 C 128.476 101.06 133.653 86.781 138.549 68.88 C 141.879 56.705 148.386 27.397 147.872 26.883 C 147.511 26.523 135.756 29.121 128.656 31.13 C 98.076 39.785 68.02 54.029 50.599 68.122 C 36.794 79.29 29.935 90.228 29.935 101.073 C 29.935 106.154 30.891 109.901 33.436 114.792 C 38.63 124.777 49.222 134.568 65.862 144.767 C 69.521 147.009 73.076 149.015 73.763 149.224 C 76.007 149.906 84.387 149.722 87.484 148.923 Z"
        fill="#000000"
        stroke-width="12"/>
</svg>
